packages/foundations/assets/icons/functional/images/arrows/chevron_right.svg

<svg xmlns="http://www.w3.org/2000/svg" width="32" height="32" fill="none"><path fill="#1A1C1F" fill-rule="evenodd" d="M11.74 7.039c-.523.127-.842.69-.7 1.235.055.21.426.598 3.803 3.979L18.586 16l-3.742 3.747c-3.925 3.93-3.856 3.853-3.857 4.295 0 .168.141.491.282.644.143.155.495.325.678.326.454.003.335.11 4.71-4.256 2.283-2.279 4.182-4.203 4.222-4.278.117-.22.147-.499.081-.75-.056-.213-.441-.616-4.204-4.385-2.278-2.283-4.203-4.182-4.276-4.22a1.24 1.24 0 0 0-.74-.084"/></svg>

<svg width="32" height="32" viewBox="0 0 32 32" fill="none" xmlns="http://www.w3.org/2000/svg"><path d="M11.740 7.039 C 11.217 7.166,10.898 7.729,11.040 8.274 C 11.095 8.484,11.466 8.872,14.843 12.253 L 18.586 16.000 14.844 19.747 C 10.919 23.677,10.988 23.600,10.987 24.042 C 10.987 24.210,11.128 24.533,11.269 24.686 C 11.412 24.841,11.764 25.011,11.947 25.012 C 12.401 25.015,12.282 25.122,16.657 20.756 C 18.940 18.477,20.839 16.553,20.879 16.478 C 20.996 16.258,21.026 15.979,20.960 15.728 C 20.904 15.515,20.519 15.112,16.756 11.343 C 14.478 9.060,12.553 7.161,12.480 7.123 C 12.295 7.025,11.955 6.987,11.740 7.039 " fill="#1A1C1F" stroke="none" fill-rule="evenodd"></path></svg>
